x-pack/solutions/security/plugins/cloud_security_posture/public/assets/icons/cis_logo.svg

<svg xmlns="http://www.w3.org/2000/svg" xmlns:xlink="http://www.w3.org/1999/xlink" width="364px" height="364px" viewBox="0 0 364 364" version="1.1">
    <title>Logos/CIS/CIS_logo_no-tag_stacked_large</title>
    <defs>
        <linearGradient x1="7.07315124e-06%" y1="50%" x2="100.000007%" y2="50%" id="linearGradient-1">
            <stop stop-color="#0083C1" offset="0%"/>
            <stop stop-color="#0083C1" offset="30%"/>
            <stop stop-color="#0083C1" stop-opacity="0" offset="96%"/>
        </linearGradient>
        <linearGradient x1="26.1416475%" y1="21.3703432%" x2="54.9973025%" y2="62.8950176%" id="linearGradient-2">
            <stop stop-color="#0083C1" offset="0%"/>
            <stop stop-color="#0083C1" offset="30%"/>
            <stop stop-color="#0083C1" stop-opacity="0" offset="90%"/>
        </linearGradient>
    </defs>
    <g id="Logos/CIS/CIS_logo_no-tag_stacked_large" stroke="none" stroke-width="1" fill="none" fill-rule="evenodd">
        <g id="CIS-Logo-2-Line-2-Spot">
            <path d="M182.021968,8.53125 C277.814564,8.53125 355.469807,86.1958548 355.469807,182 C355.469807,277.804145 277.814564,355.46875 182.021968,355.46875 C178.960206,355.46875 175.917841,355.389319 172.894872,355.230458 C169.872444,355.072601 166.871038,354.838366 163.890655,354.527753 L163.44532,358.765125 L163,363.002498 C166.127018,363.328903 169.276092,363.576755 172.44722,363.746053 C175.617951,363.913834 178.809515,364 182.021911,364 C282.525619,364 364,282.515853 364,182.000028 C364,81.484204 282.525675,0 182.021968,0 C178.809989,0 175.618425,0.0846631771 172.447277,0.253989531 C169.276537,0.421770781 166.127464,0.66965099 163,0.997630156 L163.445377,5.23495984 L163.890712,9.47228953 C166.870602,9.16269047 169.872008,8.92845552 172.894929,8.76958469 C175.917319,8.61171865 178.959665,8.53227375 182.021968,8.53125 Z" id="Path"/>
            <path d="M321.399443,181.94592 C321.389731,247.758795 275.379477,304.599795 211.039543,318.284375 C146.69961,331.968955 81.5588663,298.768868 54.793377,238.650861 L50.8966814,240.386699 L47,242.12258 C69.9653962,293.839532 120.404925,327.917988 176.931299,329.908054 C233.457673,331.89812 286.16645,301.451101 312.70814,251.477094 C339.24983,201.503088 334.973849,140.75844 301.693293,95 L298.243093,97.5080572 L294.79288,100.016129 C312.125417,123.809748 321.44357,152.503206 321.399443,181.94592 L321.399443,181.94592 Z" id="Path"/>
            <path d="M149.594523,154.988343 C149.616789,153.363816 149.25995,151.756373 148.552185,150.292948 C147.902427,148.995814 146.977573,147.855043 145.841706,146.949679 C143.515504,145.107287 140.770464,143.863702 137.848528,143.328532 C135.220249,142.777636 132.541004,142.504782 129.855292,142.514501 C123.738501,142.514501 115.988513,143.172584 109.767726,148.543212 C103.546939,153.91384 98.855411,163.997 98.855411,182.847141 C98.855411,194.419566 100.836375,204.225103 105.753991,211.137541 C110.671607,218.049979 118.525875,222.069304 130.272452,222.069304 C133.050547,222.114185 135.823326,221.811627 138.525924,221.168709 C141.345364,220.550712 143.902124,219.073451 145.841749,216.941726 C146.789667,215.915802 147.516916,214.707268 147.978713,213.390545 C148.520334,211.813127 148.784766,210.154324 148.76036,208.487209 L151.541438,208.487209 C151.402228,210.496935 151.263019,212.576216 151.158569,214.967195 C151.054119,217.358174 150.984543,220.060753 150.984543,223.316906 L150.984543,225.675041 C147.273125,226.802721 143.462043,227.573907 139.603348,227.978069 C135.584207,228.459261 131.540496,228.708073 127.492511,228.723254 C119.42627,228.862449 111.39981,227.565773 103.790357,224.894166 C97.1443839,222.559808 91.2587757,218.470185 86.7615771,213.061694 C83.8527349,209.382313 81.6603177,205.192592 80.2975717,200.708946 C78.7149304,195.45638 77.9414091,189.994659 78.003457,184.51054 C78.003457,172.521114 81.4093437,162.749865 87.0394278,155.178778 C92.7308216,147.708471 100.521171,142.093769 109.420526,139.048155 C113.069473,137.831142 116.838523,137.006794 120.66335,136.58918 C123.944748,136.199662 127.246285,136.002929 130.550857,136 C135.902763,136 141.046126,136.380984 145.007927,136.762053 C148.969728,137.143122 151.749953,137.524106 152.3756,137.524106 C152.236391,138.841404 152.166786,140.296947 152.13197,141.769628 C152.097153,143.242308 152.097167,144.73214 152.097167,146.118001 C152.097167,147.919729 152.131828,149.686617 152.18396,151.228427 C152.236093,152.770237 152.305712,154.086969 152.3756,154.988399 L149.594523,154.988399 L149.594523,154.988343 Z M196.853682,142.235745 C195.523643,143.864116 194.750274,145.873623 194.646403,147.971099 C194.256297,152.19257 194.111008,156.432978 194.21126,160.671151 L194.21126,208.347817 C194.1481,211.494512 194.275814,214.642136 194.593703,217.773461 C194.709187,219.343724 195.197911,220.864024 196.019463,222.208653 C196.49323,222.894341 197.094874,223.482755 197.791599,223.941819 C199.380091,224.975507 201.213864,225.573323 203.108007,225.674985 L203.108007,228.167923 C200.39794,228.029664 196.923003,227.925736 193.517401,227.856338 C190.111798,227.786939 186.775516,227.752084 184.342774,227.752084 C181.910033,227.752084 178.608709,227.786939 175.237767,227.856338 C171.866825,227.925736 168.426264,228.029707 165.715089,228.167923 L165.715089,225.674942 C166.845073,225.660431 167.963188,225.443031 169.015844,225.033161 C170.363456,224.523821 171.56775,223.697499 172.526294,222.624478 C173.845737,220.995964 174.59618,218.982664 174.663684,216.890258 C175.003494,212.666311 175.125401,208.427745 175.028924,204.191324 L175.028924,156.512449 C175.088806,153.367573 174.984494,150.22172 174.716413,147.087655 C174.636003,145.520515 174.17038,143.997122 173.360542,142.651613 C172.883546,141.962968 172.275494,141.374474 171.570934,140.919566 C169.939849,139.880688 168.065306,139.283714 166.13222,139.187533 L166.13222,136.692315 C168.843395,136.831678 172.3189,136.935649 175.724787,137.004778 C179.130674,137.073908 182.466956,137.108168 184.899697,137.108168 C187.331303,137.108168 190.63264,137.073879 194.003582,137.004778 C197.374525,136.935677 200.815086,136.831678 203.525138,136.692315 L203.525138,139.187533 C200.976376,139.249333 198.564712,140.351236 196.853711,142.235745 L196.853682,142.235745 Z M239.804239,228.999854 C235.874684,229.006232 231.947573,228.80391 228.039622,228.393596 C224.298388,228.040144 220.601967,227.314664 217.005498,226.227978 L217.005498,223.872137 C217.005498,220.614866 216.936163,217.773461 216.831898,215.243954 C216.727633,212.714447 216.588395,210.496865 216.448604,208.487195 L219.230818,208.487195 C219.473847,210.459007 220.067938,212.371736 220.985141,214.13539 C221.84221,215.771767 223.046126,217.202617 224.513347,218.32865 C226.43202,219.851183 228.626162,220.992079 230.976514,221.689325 C233.341819,222.406568 235.801045,222.76871 238.273319,222.763842 C247.239955,222.763842 251.758168,219.783626 254.034824,216.456956 C255.635106,213.957764 256.440815,211.034858 256.346369,208.071271 C256.52256,204.270228 255.128165,200.563353 252.488435,197.815295 C250.090353,195.286085 246.754071,193.311256 243.001255,190.885719 L239.108647,188.390501 L235.216038,185.895282 C230.664317,183.185932 226.643297,179.675793 223.348278,175.535349 C220.162419,171.137483 218.519503,165.815138 218.673881,160.392297 C218.704697,155.090943 220.570725,149.962842 223.956453,145.875063 C228.404833,140.608689 236.467361,136.139222 250.924005,136.139222 C255.659023,136.110281 260.39229,136.329757 265.104176,136.796738 C268.440728,137.142924 270.595591,137.52395 272.194113,137.663328 C271.974544,139.090281 271.875462,140.533088 271.897909,141.976563 C271.880153,143.587785 271.914543,145.008488 271.914543,145.146732 C271.914543,147.918426 271.984432,149.997806 272.054335,151.57474 C272.124238,153.151674 272.194113,154.226191 272.194113,154.988244 L269.274379,154.988244 C269.156731,153.370002 268.750748,151.78562 268.075474,150.30942 C267.446222,148.955498 266.581141,147.723563 265.520412,146.670838 C263.617633,144.904804 261.279246,143.673337 258.743583,143.101953 C256.321857,142.507183 253.835133,142.216164 251.341093,142.235646 C244.18266,142.235646 240.186341,144.314997 237.97963,146.983302 C236.166891,149.356166 235.239197,152.284205 235.355816,155.264733 C235.245787,158.411221 236.324576,161.484229 238.378649,163.875496 C240.900452,166.521434 243.820006,168.759834 247.032448,170.510297 L251.480828,173.213457 L255.929195,175.916616 C261.489049,179.312133 266.006793,182.465434 269.134517,186.519614 C272.26224,190.573794 274,195.52881 274,202.527798 C274,211.398182 270.525063,218.016144 264.513104,222.416495 C258.501146,226.816846 249.952309,228.999854 239.804239,228.999854 L239.804239,228.999854 Z" id="Shape" fill="#003A5D" fill-rule="nonzero"/>
            <path d="M287.9999,223.468253 C288.008709,224.936984 287.434031,226.349147 286.402094,227.394313 C285.378677,228.426389 283.983998,229.004764 282.530535,228.999928 C281.057766,229.007441 279.643637,228.423308 278.605558,227.378569 C277.569437,226.329529 276.992037,224.912147 277.000083,223.437715 C276.995028,221.984293 277.58325,220.591721 278.628781,219.582094 C279.703456,218.553829 281.137388,217.986186 282.624692,218.000255 C284.054445,218.008544 285.420472,218.592917 286.413863,219.621225 C287.425587,220.646612 287.994973,222.02778 287.9999,223.468253 L287.9999,223.468253 Z M277.905924,223.468253 C277.903082,224.694868 278.38787,225.872325 279.253549,226.741349 C280.112123,227.606927 281.281022,228.093479 282.500195,228.092762 C283.719369,228.092044 284.887694,227.604115 285.745248,226.737526 C286.613348,225.859219 287.097891,224.672617 287.09275,223.437715 C287.09039,222.228795 286.597119,221.072669 285.725998,220.234425 C284.845046,219.379749 283.665031,218.903078 282.437615,218.906058 C281.235307,218.913447 280.085934,219.401574 279.245753,220.261622 C278.394158,221.112264 277.912676,222.264613 277.905924,223.468253 L277.905924,223.468253 Z M280.124697,220.093053 L282.281172,220.093053 C282.957293,220.05472 283.632344,220.184995 284.245647,220.472168 C284.648923,220.735446 284.929997,221.149229 285.026119,221.621146 C285.122242,222.093062 285.025411,222.583819 284.757242,222.983858 C284.532659,223.269711 284.204224,223.455247 283.843471,223.500055 L283.843471,223.562396 C284.009314,223.614725 284.159616,223.707311 284.280956,223.831886 C284.386238,223.945176 284.470704,224.076154 284.53047,224.218797 L285.077525,225.421686 L285.624581,226.624616 L283.749327,226.624616 L283.327572,225.624601 L282.90583,224.624641 C282.843502,224.462616 282.736466,224.32161 282.597165,224.218013 C282.392761,224.11588 282.163994,224.072562 281.9364,224.092893 L281.749406,224.092893 L281.749406,226.624616 L280.124766,226.624616 L280.124766,220.093039 L280.124697,220.093053 Z M281.749337,222.875402 L281.968162,222.875402 C282.33564,222.902534 282.704441,222.844914 283.046131,222.706984 C283.270174,222.588093 283.399839,222.345305 283.374045,222.092987 C283.396708,221.863424 283.262144,221.647324 283.046131,221.566381 C282.697776,221.457579 282.332339,221.413964 281.968162,221.437727 L281.749337,221.437727 L281.749337,222.875429 L281.749337,222.875402 Z" id="Shape" fill="#0083C1" fill-rule="nonzero"/>
            <path d="M181.978035,355.46875 C86.1854521,355.46875 8.53022039,277.804145 8.53022039,182 C8.53022039,86.1958548 86.1854521,8.53125 181.978035,8.53125 C185.039815,8.53125 188.08218,8.61068068 191.105129,8.76954203 C194.127557,8.92739859 197.128967,9.16163354 200.10936,9.47224688 L200.55468,5.23487453 L201,0.997502188 C197.872973,0.671096563 194.7239,0.423244792 191.552781,0.253946875 C188.382022,0.0861845833 185.19044,0 181.978035,0 C81.4743415,0 0,81.4841755 0,182 C0,282.515824 81.4743415,364 181.978035,364 C185.190023,364 188.381591,363.915337 191.552738,363.74601 C194.723478,363.578229 197.872551,363.330349 201,363.00237 L200.554637,358.76504 L200.109317,354.52771 C197.129427,354.83731 194.128017,355.071544 191.105087,355.230415 C188.082735,355.388291 185.040384,355.467736 181.978035,355.46875 Z" id="Path" fill="url(#linearGradient-1)" fill-rule="nonzero"/>
            <path d="M42.6005901,182.054104 C42.6103015,116.241248 88.6205483,59.4002649 152.960471,45.7156886 C217.300393,32.0311123 282.441125,65.2311899 309.20661,125.34918 L313.103305,123.613342 L317,121.877504 C294.03464,70.160526 243.595114,36.0820346 187.068727,34.0919482 C130.542339,32.1018618 77.8335412,62.5488798 51.2918496,112.522897 C24.750158,162.496913 29.0261602,223.241572 62.3067513,269 L65.75695,266.491944 L69.207163,263.983873 C51.8746234,240.190262 42.5564673,211.496812 42.6005901,182.054104 Z" id="Path" fill="url(#linearGradient-2)" fill-rule="nonzero"/>
        </g>
    </g>
</svg>

<svg xmlns="http://www.w3.org/2000/svg" width="364" height="364"><defs><linearGradient id="a" x1="0%" x2="100%" y1="50%" y2="50%"><stop offset="0%" stop-color="#0083C1"/><stop offset="30%" stop-color="#0083C1"/><stop offset="96%" stop-color="#0083C1" stop-opacity="0"/></linearGradient><linearGradient id="b" x1="26.142%" x2="54.997%" y1="21.37%" y2="62.895%"><stop offset="0%" stop-color="#0083C1"/><stop offset="30%" stop-color="#0083C1"/><stop offset="90%" stop-color="#0083C1" stop-opacity="0"/></linearGradient></defs><g fill="none" fill-rule="evenodd"><path d="M182.022 8.531C277.815 8.531 355.47 86.196 355.47 182s-77.655 173.469-173.448 173.469q-4.593 0-9.127-.239a175 175 0 0 1-9.004-.702l-.446 4.237-.445 4.237q4.69.49 9.447.744 4.757.253 9.575.254C282.526 364 364 282.516 364 182S282.526 0 182.022 0q-4.818 0-9.575.254-4.756.252-9.447.744l.445 4.237.446 4.237q4.47-.465 9.004-.702a176 176 0 0 1 9.127-.239"/><path d="M321.4 181.946c-.01 65.813-46.02 122.654-110.36 136.338C146.7 331.97 81.559 298.77 54.793 238.651l-3.896 1.736L47 242.123c22.965 51.717 73.405 85.795 129.931 87.785s109.235-28.457 135.777-78.43C339.25 201.502 334.974 140.757 301.693 95l-3.45 2.508-3.45 2.508a138.8 138.8 0 0 1 26.606 81.93"/><path fill="#003A5D" fill-rule="nonzero" d="M149.595 154.988a10.46 10.46 0 0 0-1.043-4.695 10 10 0 0 0-2.71-3.343 18.14 18.14 0 0 0-7.993-3.621 38.3 38.3 0 0 0-7.994-.814c-6.116 0-13.866.658-20.087 6.028s-10.913 15.454-10.913 34.304c0 11.573 1.981 21.378 6.899 28.29 4.918 6.913 12.772 10.932 24.518 10.932 2.779.045 5.551-.257 8.254-.9a13.9 13.9 0 0 0 7.316-4.227 10.2 10.2 0 0 0 2.137-3.551c.541-1.578.806-3.237.781-4.904h2.781c-.139 2.01-.278 4.09-.382 6.48a189 189 0 0 0-.174 8.35v2.358a61 61 0 0 1-11.382 2.303c-4.019.481-8.063.73-12.11.745a68 68 0 0 1-23.703-3.829 38.9 38.9 0 0 1-17.028-11.832 37.5 37.5 0 0 1-6.464-12.353 54 54 0 0 1-2.295-16.198c0-11.99 3.406-21.761 9.036-29.332a47.45 47.45 0 0 1 22.382-16.13 54 54 0 0 1 11.242-2.46 85 85 0 0 1 9.888-.589c5.352 0 10.495.381 14.457.762s6.742.762 7.368.762c-.14 1.317-.21 2.773-.244 4.246-.035 1.472-.035 2.962-.035 4.348 0 1.802.035 3.569.087 5.11s.122 2.859.192 3.76zm47.259-12.752a9.84 9.84 0 0 0-2.208 5.735c-.39 4.222-.535 8.462-.435 12.7v47.677a78 78 0 0 0 .383 9.425 9.9 9.9 0 0 0 1.425 4.436 6.5 6.5 0 0 0 1.773 1.733 10.8 10.8 0 0 0 5.316 1.733v2.493c-2.71-.138-6.185-.242-9.59-.312s-6.742-.104-9.175-.104-5.734.035-9.105.104c-3.371.07-6.812.174-9.523.312v-2.493a9.4 9.4 0 0 0 3.3-.642 8.95 8.95 0 0 0 3.511-2.409 9.6 9.6 0 0 0 2.138-5.734c.34-4.224.461-8.462.365-12.699v-47.679c.06-3.144-.045-6.29-.313-9.424a9.55 9.55 0 0 0-1.355-4.436 6.4 6.4 0 0 0-1.79-1.732 11.16 11.16 0 0 0-5.439-1.732v-2.496c2.711.14 6.187.244 9.593.313s6.742.103 9.175.103c2.431 0 5.733-.034 9.104-.103 3.37-.07 6.811-.173 9.521-.313v2.496a9.32 9.32 0 0 0-6.671 3.048M239.804 229c-3.93.006-7.856-.196-11.764-.606a56.5 56.5 0 0 1-11.035-2.166v-2.356c0-3.257-.069-6.099-.173-8.628s-.244-4.747-.383-6.757h2.782a16.7 16.7 0 0 0 1.754 5.648 12.7 12.7 0 0 0 3.528 4.194 19.2 19.2 0 0 0 6.464 3.36 25 25 0 0 0 7.296 1.075c8.967 0 13.485-2.98 15.762-6.307 1.6-2.5 2.406-5.422 2.311-8.386a13.88 13.88 0 0 0-3.858-10.256c-2.398-2.529-5.734-4.504-9.487-6.93l-3.892-2.494-3.893-2.496a43.8 43.8 0 0 1-11.868-10.36 24.6 24.6 0 0 1-4.674-15.143 22.97 22.97 0 0 1 5.282-14.517c4.449-5.266 12.511-9.736 26.968-9.736 4.735-.029 9.468.19 14.18.658 3.337.346 5.492.727 7.09.866a26 26 0 0 0-.296 4.314c-.018 1.61.017 3.031.017 3.17 0 2.771.07 4.85.14 6.428.07 1.577.14 2.651.14 3.413h-2.92a13.6 13.6 0 0 0-1.2-4.679 12.6 12.6 0 0 0-2.555-3.638 14.7 14.7 0 0 0-6.776-3.569 30 30 0 0 0-7.403-.866c-7.158 0-11.155 2.079-13.361 4.747a12.8 12.8 0 0 0-2.624 8.282c-.11 3.146.969 6.22 3.023 8.61a35.3 35.3 0 0 0 8.653 6.635l4.449 2.703 4.448 2.704c5.56 3.395 10.078 6.548 13.206 10.603 3.127 4.054 4.865 9.009 4.865 16.008 0 8.87-3.475 15.488-9.487 19.888S249.953 229 239.804 229"/><path fill="#0083C1" fill-rule="nonzero" d="M288 223.468a5.54 5.54 0 0 1-1.598 3.926 5.43 5.43 0 0 1-3.871 1.606 5.5 5.5 0 0 1-3.925-1.621 5.57 5.57 0 0 1-1.606-3.941 5.33 5.33 0 0 1 1.629-3.856 5.7 5.7 0 0 1 3.996-1.582 5.3 5.3 0 0 1 3.789 1.621 5.5 5.5 0 0 1 1.586 3.847m-10.094 0a4.62 4.62 0 0 0 1.348 3.273 4.57 4.57 0 0 0 6.491-.003 4.67 4.67 0 0 0 1.348-3.3 4.46 4.46 0 0 0-1.367-3.204 4.7 4.7 0 0 0-3.288-1.328 4.5 4.5 0 0 0-3.192 1.356 4.57 4.57 0 0 0-1.34 3.206m2.219-3.375h2.156a4.1 4.1 0 0 1 1.965.38 1.8 1.8 0 0 1 .511 2.51 1.38 1.38 0 0 1-.914.517v.062c.166.053.317.145.438.27q.159.171.25.387l.547 1.203.547 1.203h-1.876l-.421-1-.422-1a.9.9 0 0 0-.309-.407 1.23 1.23 0 0 0-.66-.125h-.188v2.532h-1.624zm1.624 2.782h.22c.367.028.735-.03 1.077-.168a.62.62 0 0 0 .328-.614.51.51 0 0 0-.328-.527 3 3 0 0 0-1.078-.128h-.219z"/><path fill="url(#a)" fill-rule="nonzero" d="M181.978 355.469C86.185 355.469 8.53 277.804 8.53 182S86.185 8.531 181.978 8.531q4.593 0 9.127.239 4.534.236 9.004.702l.446-4.237L201 .998a187 187 0 0 0-9.447-.744Q186.796 0 181.978 0C81.474 0 0 81.484 0 182s81.474 182 181.978 182q4.818 0 9.575-.254 4.756-.252 9.447-.744l-.445-4.237-.446-4.237q-4.47.465-9.004.702t-9.127.239"/><path fill="url(#b)" fill-rule="nonzero" d="M42.6 182.054C42.61 116.241 88.62 59.4 152.96 45.716 217.3 32.03 282.441 65.23 309.207 125.349l3.896-1.736 3.897-1.735c-22.965-51.717-73.405-85.796-129.931-87.786S77.834 62.549 51.292 112.522C24.75 162.498 29.026 223.243 62.307 269l3.45-2.508 3.45-2.508a138.8 138.8 0 0 1-26.606-81.93"/></g></svg>
